front/src/Assets/image/trash.svg

<svg width="24" height="24" viewBox="0 0 24 24" fill="none" xmlns="http://www.w3.org/2000/svg">
<path fill-rule="evenodd" clip-rule="evenodd" d="M21 6H3V9C4.10457 9 5 9.89543 5 11V15C5 17.8284 5 19.2426 5.87868 20.1213C6.75736 21 8.17157 21 11 21H13C15.8284 21 17.2426 21 18.1213 20.1213C19 19.2426 19 17.8284 19 15V11C19 9.89543 19.8954 9 21 9V6ZM10.5 11C10.5 10.4477 10.0523 10 9.5 10C8.94772 10 8.5 10.4477 8.5 11V16C8.5 16.5523 8.94772 17 9.5 17C10.0523 17 10.5 16.5523 10.5 16V11ZM15.5 11C15.5 10.4477 15.0523 10 14.5 10C13.9477 10 13.5 10.4477 13.5 11V16C13.5 16.5523 13.9477 17 14.5 17C15.0523 17 15.5 16.5523 15.5 16V11Z" fill="#0066EA"/>
<path d="M10.0681 3.37059C10.1821 3.26427 10.4332 3.17033 10.7825 3.10332C11.1318 3.03632 11.5597 3 12 3C12.4403 3 12.8682 3.03632 13.2175 3.10332C13.5668 3.17033 13.8179 3.26427 13.9319 3.37059" stroke="#0066EA" stroke-width="2" stroke-linecap="round"/>
</svg>

<svg xmlns="http://www.w3.org/2000/svg" fill="none" viewBox="0 0 24 24">
  <path fill="#0066EA" fill-rule="evenodd" d="M21 6H3v3a2 2 0 012 2v4c0 2.828 0 4.243.879 5.121C6.757 21 8.172 21 11 21h2c2.828 0 4.243 0 5.121-.879C19 19.243 19 17.828 19 15v-4a2 2 0 012-2V6zm-10.5 5a1 1 0 10-2 0v5a1 1 0 102 0v-5zm5 0a1 1 0 10-2 0v5a1 1 0 102 0v-5z" clip-rule="evenodd"/>
  <path stroke="#0066EA" stroke-linecap="round" stroke-width="2" d="M10.068 3.37c.114-.106.365-.2.715-.267A6.68 6.68 0 0112 3c.44 0 .868.036 1.217.103.35.067.6.161.715.268"/>
</svg>
